X:1
T:Westbourne, 88.88.88
T:Westbourne, 88.88.88
T:Charles Edward Stephens, 1849
T:Public Domain Courtesy of the Cyber Hymnal™
C:Charles Edward Stephens, 1849
Z:Public Domain
Z:Courtesy of the Cyber Hymnal™
%%score ( 1 2 ) ( 3 4 )
L:1/8
Q:1/4=110
M:none
K:G
V:1 treble 
V:2 treble 
V:3 bass 
V:4 bass 
V:1
 [B,D]2 | [DB]2 A2 [B,G]2 D2 | [G,G]2 [EA]2 [^DB]2 [EB]2 | [Ec]2 [Ec]2 [^DB]2 [FA]2 | %4
 G2 [^CA]2 D2 D2 | [CE]2 [CF]2 [B,G]2 [B,G]2 | [EA]2 [DB]2 [Cc]2 [Gd]2 | [Ge]2 e2 [Gd]2 [EG]2 | %8
 [EA]2 [^DB]2 E2 [Cc]2 | [Dc]2 [DB]2 [CA]2 [B,E]2 | [DF]2 [CE]2 [B,D]2 D2 | %11
 [CE]2 [DF]2 [DG]2 [EG]2 | [DG]2 [DF]2 [DG]2 |] %13
V:2
 x2 | x2 DC x B,A, x | x8 | x8 | ED x D2 D2 x | x8 | x8 | x2 EF x4 | x4 E2 x2 | x8 | x6 D2 | x8 | %12
 x6 |] %13
V:3
 [G,,G,]2 | G,2 [D,F,]2 [E,G,]2 [F,A,] x | [E,B,]2 [C,C]2 [B,,F,]2 [E,^G,]2 | %3
 [A,,A,]2 [A,,G,]2 [B,,F,]2 [^D,B,]2 | [E,B,]2 (A,G,) [D,F,]2 [B,,G,]2 | %5
 [C,G,]2 [A,,A,]2 [E,G,]2 [D,G,]2 | [C,C]2 [B,,^G,]2 [A,,A,]2 [^G,,B,]2 | %7
 [C,C]2 G,A, [B,,B,]2 [E,B,]2 | [C,A,]2 [B,,A,]2 [E,G,]2 [E,G,]2 | %9
 [F,A,]2 [G,B,]2 [D,F,]2 [E,G,]2 | [B,,B,]2 [C,G,]2 [G,,G,]2 [B,,G,]2 | %11
 [C,G,]2 [C,A,]2 [B,,B,]2 [A,,C]2 | [D,A,]2 [D,A,]2 [G,,B,]2 |] %13
V:4
 x2 | G,2 G, x5 | x8 | x8 | x2 A,,2 x4 | x8 | x8 | x2 C,2 x4 | x8 | x8 | x8 | x8 | x6 |] %13

